X:24
T:The Strathbogie Toast
M:C
L:1/8
Z: Jason R. Fruit <JasonFruit@gmail.com>
R: reel
C: from Wm. Marshall's collection
K:Aminor
ea (b/a/^g) a2 e=g | dega egdg | ea (b/a/^g) a2 ea | =g<ed>B {B}A2 A2 |
ea (b/a/^g) a2 e=g | dega egdg | e!1!gab c'bag | e<gd>B {B}A2 Aa ||
cAeA cAeA | gedg BGdB | cAeA cAeA | g<ed>B {B}A2 Aa |
cAeA cAeA | gedg BGdB | ABcd efga | g<ed>B {B}A2A2 |]

